METS/logos/small3.svg

<?xml version="1.0" encoding="UTF-8" standalone="no"?>
<svg
   xmlns:dc="http://purl.org/dc/elements/1.1/"
   xmlns:cc="http://creativecommons.org/ns#"
   xmlns:rdf="http://www.w3.org/1999/02/22-rdf-syntax-ns#"
   xmlns:svg="http://www.w3.org/2000/svg"
   xmlns="http://www.w3.org/2000/svg"
   xmlns:sodipodi="http://sodipodi.sourceforge.net/DTD/sodipodi-0.dtd"
   xmlns:inkscape="http://www.inkscape.org/namespaces/inkscape"
   version="1.2"
   width="64"
   height="64"
   viewBox="9297 15634 1693.3333 1693.3332"
   preserveAspectRatio="xMidYMid"
   xml:space="preserve"
   id="svg67"
   sodipodi:docname="small3.svg"
   inkscape:version="0.92.4 (5da689c313, 2019-01-14)"
   style="fill-rule:evenodd;stroke-width:28.22200012;stroke-linejoin:round"
   inkscape:export-filename="C:\Users\mikeg\Desktop\Square44x44Logo.targetsize-256.png"
   inkscape:export-xdpi="384"
   inkscape:export-ydpi="384"><metadata
   id="metadata71"><rdf:RDF><cc:Work
       rdf:about=""><dc:format>image/svg+xml</dc:format><dc:type
         rdf:resource="http://purl.org/dc/dcmitype/StillImage" /><dc:title></dc:title></cc:Work></rdf:RDF></metadata><sodipodi:namedview
   pagecolor="#ffffff"
   bordercolor="#666666"
   borderopacity="1"
   objecttolerance="10"
   gridtolerance="10"
   guidetolerance="10"
   inkscape:pageopacity="0"
   inkscape:pageshadow="2"
   inkscape:window-width="1920"
   inkscape:window-height="1017"
   id="namedview69"
   showgrid="false"
   inkscape:zoom="3.835483"
   inkscape:cx="30.897639"
   inkscape:cy="9.9074874"
   inkscape:window-x="-8"
   inkscape:window-y="-8"
   inkscape:window-maximized="1"
   inkscape:current-layer="svg67"
   units="px" />
 <defs
   id="defs9">
  <font
   id="EmbeddedFont_1"
   horiz-adv-x="2048"
   horiz-origin-x="0"
   horiz-origin-y="0"
   vert-origin-x="45"
   vert-origin-y="90"
   vert-adv-y="90">
   <font-face
   font-family="Droid Sans embedded"
   units-per-em="2048"
   font-weight="bold"
   font-style="normal"
   ascent="1879"
   descent="476"
   id="font-face2" />
   <missing-glyph
   horiz-adv-x="2048"
   d="M 0,0 L 2047,0 2047,2047 0,2047 0,0 Z"
   id="missing-glyph4" />
   <glyph
   unicode="æ"
   horiz-adv-x="1642"
   d="M 1268,-20 C 1181,-20 1101,-3 1030,31 959,64 900,116 854,186 825,150 797,119 769,94 741,68 711,47 678,30 645,13 609,0 568,-8 527,-16 479,-20 424,-20 379,-20 336,-13 295,2 254,16 218,38 187,67 156,96 131,132 113,177 95,221 86,273 86,334 86,453 124,540 200,597 276,653 390,684 541,690 L 719,696 719,780 C 719,826 706,860 679,882 652,904 615,915 567,915 519,915 472,908 427,894 381,880 335,861 289,838 L 190,1040 C 246,1071 308,1096 376,1114 444,1132 515,1141 590,1141 733,1141 840,1097 913,1010 997,1096 1102,1139 1227,1139 1301,1139 1368,1128 1428,1106 1487,1083 1538,1050 1579,1007 1620,964 1652,911 1675,848 1697,785 1708,712 1708,631 L 1708,483 1026,483 C 1027,440 1034,402 1047,368 1059,333 1076,304 1099,281 1121,257 1148,239 1180,226 1211,213 1247,207 1288,207 1351,207 1411,214 1470,229 1528,243 1586,265 1645,295 L 1645,59 C 1618,45 1592,33 1565,24 1538,14 1509,6 1479,-1 1449,-8 1417,-12 1382,-16 1347,-18 1309,-20 1268,-20 Z M 719,518 L 618,514 C 577,513 543,507 515,498 487,489 465,476 448,461 431,445 418,426 411,405 403,383 399,359 399,332 399,285 410,252 433,233 456,213 485,203 522,203 550,203 576,208 600,218 624,227 645,242 663,261 680,280 694,303 704,331 714,358 719,390 719,426 L 719,518 Z M 1229,922 C 1174,922 1129,903 1094,865 1058,827 1037,767 1032,686 L 1421,686 C 1420,720 1416,751 1408,780 1400,809 1388,834 1373,855 1357,876 1337,892 1313,904 1289,916 1261,922 1229,922 Z"
   id="glyph6" />
  </font>
 
  
  
 
   
  
    
    
   </defs>
 <defs
   class="EmbeddedBulletChars"
   id="defs41">
  <g
   id="bullet-char-template-57356"
   transform="matrix(4.8828125e-4,0,0,-4.8828125e-4,0,0)">
   <path
   d="M 580,1141 1163,571 580,0 -4,571 Z"
   id="path11"
   inkscape:connector-curvature="0" />
  </g>
  <g
   id="bullet-char-template-57354"
   transform="matrix(4.8828125e-4,0,0,-4.8828125e-4,0,0)">
   <path
   d="M 8,1128 H 1137 V 0 H 8 Z"
   id="path14"
   inkscape:connector-curvature="0" />
  </g>
  <g
   id="bullet-char-template-10146"
   transform="matrix(4.8828125e-4,0,0,-4.8828125e-4,0,0)">
   <path
   d="M 174,0 602,739 174,1481 1456,739 Z M 1358,739 309,1346 659,739 Z"
   id="path17"
   inkscape:connector-curvature="0" />
  </g>
  <g
   id="bullet-char-template-10132"
   transform="matrix(4.8828125e-4,0,0,-4.8828125e-4,0,0)">
   <path
   d="M 2015,739 1276,0 H 717 l 543,543 H 174 v 393 h 1086 l -543,545 h 557 z"
   id="path20"
   inkscape:connector-curvature="0" />
  </g>
  <g
   id="bullet-char-template-10007"
   transform="matrix(4.8828125e-4,0,0,-4.8828125e-4,0,0)">
   <path
   d="m 0,-2 c -7,16 -16,29 -25,39 l 381,530 c -94,256 -141,385 -141,387 0,25 13,38 40,38 9,0 21,-2 34,-5 21,4 42,12 65,25 l 27,-13 111,-251 280,301 64,-25 24,25 c 21,-10 41,-24 62,-43 C 886,937 835,863 770,784 769,783 710,716 594,584 L 774,223 c 0,-27 -21,-55 -63,-84 l 16,-20 C 717,90 699,76 672,76 641,76 570,178 457,381 L 164,-76 c -22,-34 -53,-51 -92,-51 -42,0 -63,17 -64,51 -7,9 -10,24 -10,44 0,9 1,19 2,30 z"
   id="path23"
   inkscape:connector-curvature="0" />
  </g>
  <g
   id="bullet-char-template-10004"
   transform="matrix(4.8828125e-4,0,0,-4.8828125e-4,0,0)">
   <path
   d="M 285,-33 C 182,-33 111,30 74,156 52,228 41,333 41,471 c 0,78 14,145 41,201 34,71 87,106 158,106 53,0 88,-31 106,-94 l 23,-176 c 8,-64 28,-97 59,-98 l 735,706 c 11,11 33,17 66,17 42,0 63,-15 63,-46 V 965 c 0,-36 -10,-64 -30,-84 L 442,47 C 390,-6 338,-33 285,-33 Z"
   id="path26"
   inkscape:connector-curvature="0" />
  </g>
  <g
   id="bullet-char-template-9679"
   transform="matrix(4.8828125e-4,0,0,-4.8828125e-4,0,0)">
   <path
   d="M 813,0 C 632,0 489,54 383,161 276,268 223,411 223,592 c 0,181 53,324 160,431 106,107 249,161 430,161 179,0 323,-54 432,-161 108,-107 162,-251 162,-431 0,-180 -54,-324 -162,-431 C 1136,54 992,0 813,0 Z"
   id="path29"
   inkscape:connector-curvature="0" />
  </g>
  <g
   id="bullet-char-template-8226"
   transform="matrix(4.8828125e-4,0,0,-4.8828125e-4,0,0)">
   <path
   d="m 346,457 c -73,0 -137,26 -191,78 -54,51 -81,114 -81,188 0,73 27,136 81,188 54,52 118,78 191,78 73,0 134,-26 185,-79 51,-51 77,-114 77,-187 0,-75 -25,-137 -76,-188 -50,-52 -112,-78 -186,-78 z"
   id="path32"
   inkscape:connector-curvature="0" />
  </g>
  <g
   id="bullet-char-template-8211"
   transform="matrix(4.8828125e-4,0,0,-4.8828125e-4,0,0)">
   <path
   d="M -4,459 H 1135 V 606 H -4 Z"
   id="path35"
   inkscape:connector-curvature="0" />
  </g>
  <g
   id="bullet-char-template-61548"
   transform="matrix(4.8828125e-4,0,0,-4.8828125e-4,0,0)">
   <path
   d="m 173,740 c 0,163 58,303 173,419 116,115 255,173 419,173 163,0 302,-58 418,-173 116,-116 174,-256 174,-419 0,-163 -58,-303 -174,-418 C 1067,206 928,148 765,148 601,148 462,206 346,322 231,437 173,577 173,740 Z"
   id="path38"
   inkscape:connector-curvature="0" />
  </g>
 </defs>
 <rect
   style="fill:none;stroke:none"
   id="rect52"
   height="1593"
   width="1627"
   y="16092.435"
   x="9400.8643"
   class="BoundingBox" /><g
   id="g105"
   transform="matrix(1.0635593,0,0,1.0635593,-751.88121,-1422.8682)"><g
     transform="translate(144.86441,400.1017)"
     class="com.sun.star.drawing.CustomShape"
     id="g50">
   <g
   id="id3">
    <rect
   class="BoundingBox"
   x="9297"
   y="15634"
   width="1628"
   height="1628"
   id="rect43"
   style="fill:none;stroke:none" />
    <path
   d="m 10111,17220 h -773 v -1545 h 1545 v 1545 z"
   id="path45"
   inkscape:connector-curvature="0"
   style="fill:#7da647;stroke:none" />
    <path
   d="m 10111,17220 h -773 v -1545 h 1545 v 1545 z"
   id="path47"
   inkscape:connector-curvature="0"
   style="fill:none;stroke:#7da647;stroke-width:81;stroke-linejoin:round" />
   </g>
  </g><text
     y="343.40695"
     x="61.373039"
     class="TextShape"
     id="text60"><tspan
       class="TextParagraph"
       font-size="1129px"
       font-weight="700"
       id="tspan58"
       style="font-weight:700;font-size:1129px;font-family:'Droid Sans', sans-serif"><tspan
         class="TextPosition"
         x="9682.373"
         y="17181.406"
         id="tspan56"><tspan
           id="tspan54"
           style="fill:#ffffff;stroke:none">æ</tspan></tspan></tspan></text>
</g>
</svg>

<?xml version="1.0" encoding="UTF-8"?>
<!DOCTYPE svg PUBLIC "-//W3C//DTD SVG 1.1//EN" "http://www.w3.org/Graphics/SVG/1.1/DTD/svg11.dtd">
<svg version="1.2" width="16.35mm" height="16.28mm" viewBox="9297 15634 1635 1628" preserveAspectRatio="xMidYMid" fill-rule="evenodd" stroke-width="28.222" stroke-linejoin="round" xmlns="http://www.w3.org/2000/svg" xmlns:ooo="http://xml.openoffice.org/svg/export" xmlns:xlink="http://www.w3.org/1999/xlink" xmlns:presentation="http://sun.com/xmlns/staroffice/presentation" xmlns:smil="http://www.w3.org/2001/SMIL20/" xmlns:anim="urn:oasis:names:tc:opendocument:xmlns:animation:1.0" xml:space="preserve">
 <defs>
  <font id="EmbeddedFont_1" horiz-adv-x="2048">
   <font-face font-family="Droid Sans embedded" units-per-em="2048" font-weight="bold" font-style="normal" ascent="1879" descent="476"/>
   <missing-glyph horiz-adv-x="2048" d="M 0,0 L 2047,0 2047,2047 0,2047 0,0 Z"/>
   <glyph unicode="æ" horiz-adv-x="1642" d="M 1268,-20 C 1181,-20 1101,-3 1030,31 959,64 900,116 854,186 825,150 797,119 769,94 741,68 711,47 678,30 645,13 609,0 568,-8 527,-16 479,-20 424,-20 379,-20 336,-13 295,2 254,16 218,38 187,67 156,96 131,132 113,177 95,221 86,273 86,334 86,453 124,540 200,597 276,653 390,684 541,690 L 719,696 719,780 C 719,826 706,860 679,882 652,904 615,915 567,915 519,915 472,908 427,894 381,880 335,861 289,838 L 190,1040 C 246,1071 308,1096 376,1114 444,1132 515,1141 590,1141 733,1141 840,1097 913,1010 997,1096 1102,1139 1227,1139 1301,1139 1368,1128 1428,1106 1487,1083 1538,1050 1579,1007 1620,964 1652,911 1675,848 1697,785 1708,712 1708,631 L 1708,483 1026,483 C 1027,440 1034,402 1047,368 1059,333 1076,304 1099,281 1121,257 1148,239 1180,226 1211,213 1247,207 1288,207 1351,207 1411,214 1470,229 1528,243 1586,265 1645,295 L 1645,59 C 1618,45 1592,33 1565,24 1538,14 1509,6 1479,-1 1449,-8 1417,-12 1382,-16 1347,-18 1309,-20 1268,-20 Z M 719,518 L 618,514 C 577,513 543,507 515,498 487,489 465,476 448,461 431,445 418,426 411,405 403,383 399,359 399,332 399,285 410,252 433,233 456,213 485,203 522,203 550,203 576,208 600,218 624,227 645,242 663,261 680,280 694,303 704,331 714,358 719,390 719,426 L 719,518 Z M 1229,922 C 1174,922 1129,903 1094,865 1058,827 1037,767 1032,686 L 1421,686 C 1420,720 1416,751 1408,780 1400,809 1388,834 1373,855 1357,876 1337,892 1313,904 1289,916 1261,922 1229,922 Z"/>
  </font>
 </defs>
 <defs class="EmbeddedBulletChars">
  <g id="bullet-char-template-57356" transform="scale(0.00048828125,-0.00048828125)">
   <path d="M 580,1141 L 1163,571 580,0 -4,571 580,1141 Z"/>
  </g>
  <g id="bullet-char-template-57354" transform="scale(0.00048828125,-0.00048828125)">
   <path d="M 8,1128 L 1137,1128 1137,0 8,0 8,1128 Z"/>
  </g>
  <g id="bullet-char-template-10146" transform="scale(0.00048828125,-0.00048828125)">
   <path d="M 174,0 L 602,739 174,1481 1456,739 174,0 Z M 1358,739 L 309,1346 659,739 1358,739 Z"/>
  </g>
  <g id="bullet-char-template-10132" transform="scale(0.00048828125,-0.00048828125)">
   <path d="M 2015,739 L 1276,0 717,0 1260,543 174,543 174,936 1260,936 717,1481 1274,1481 2015,739 Z"/>
  </g>
  <g id="bullet-char-template-10007" transform="scale(0.00048828125,-0.00048828125)">
   <path d="M 0,-2 C -7,14 -16,27 -25,37 L 356,567 C 262,823 215,952 215,954 215,979 228,992 255,992 264,992 276,990 289,987 310,991 331,999 354,1012 L 381,999 492,748 772,1049 836,1024 860,1049 C 881,1039 901,1025 922,1006 886,937 835,863 770,784 769,783 710,716 594,584 L 774,223 C 774,196 753,168 711,139 L 727,119 C 717,90 699,76 672,76 641,76 570,178 457,381 L 164,-76 C 142,-110 111,-127 72,-127 30,-127 9,-110 8,-76 1,-67 -2,-52 -2,-32 -2,-23 -1,-13 0,-2 Z"/>
  </g>
  <g id="bullet-char-template-10004" transform="scale(0.00048828125,-0.00048828125)">
   <path d="M 285,-33 C 182,-33 111,30 74,156 52,228 41,333 41,471 41,549 55,616 82,672 116,743 169,778 240,778 293,778 328,747 346,684 L 369,508 C 377,444 397,411 428,410 L 1163,1116 C 1174,1127 1196,1133 1229,1133 1271,1133 1292,1118 1292,1087 L 1292,965 C 1292,929 1282,901 1262,881 L 442,47 C 390,-6 338,-33 285,-33 Z"/>
  </g>
  <g id="bullet-char-template-9679" transform="scale(0.00048828125,-0.00048828125)">
   <path d="M 813,0 C 632,0 489,54 383,161 276,268 223,411 223,592 223,773 276,916 383,1023 489,1130 632,1184 813,1184 992,1184 1136,1130 1245,1023 1353,916 1407,772 1407,592 1407,412 1353,268 1245,161 1136,54 992,0 813,0 Z"/>
  </g>
  <g id="bullet-char-template-8226" transform="scale(0.00048828125,-0.00048828125)">
   <path d="M 346,457 C 273,457 209,483 155,535 101,586 74,649 74,723 74,796 101,859 155,911 209,963 273,989 346,989 419,989 480,963 531,910 582,859 608,796 608,723 608,648 583,586 532,535 482,483 420,457 346,457 Z"/>
  </g>
  <g id="bullet-char-template-8211" transform="scale(0.00048828125,-0.00048828125)">
   <path d="M -4,459 L 1135,459 1135,606 -4,606 -4,459 Z"/>
  </g>
  <g id="bullet-char-template-61548" transform="scale(0.00048828125,-0.00048828125)">
   <path d="M 173,740 C 173,903 231,1043 346,1159 462,1274 601,1332 765,1332 928,1332 1067,1274 1183,1159 1299,1043 1357,903 1357,740 1357,577 1299,437 1183,322 1067,206 928,148 765,148 601,148 462,206 346,322 231,437 173,577 173,740 Z"/>
  </g>
 </defs>
 <g class="Page">
  <g class="com.sun.star.drawing.CustomShape">
   <g id="id3">
    <rect class="BoundingBox" stroke="none" fill="none" x="9297" y="15634" width="1628" height="1628"/>
    <path fill="rgb(125,166,71)" stroke="none" d="M 10111,17220 L 9338,17220 9338,15675 10883,15675 10883,17220 10111,17220 Z"/>
    <path fill="none" stroke="rgb(125,166,71)" stroke-width="81" stroke-linejoin="round" d="M 10111,17220 L 9338,17220 9338,15675 10883,15675 10883,17220 10111,17220 Z"/>
   </g>
  </g>
  <g class="com.sun.star.drawing.TextShape">
   <g id="id4">
    <rect class="BoundingBox" stroke="none" fill="none" x="9305" y="15663" width="1627" height="1593"/>
    <text class="TextShape"><tspan class="TextParagraph" font-family="Droid Sans, sans-serif" font-size="1129px" font-weight="700"><tspan class="TextPosition" x="9621" y="16838"><tspan fill="rgb(255,255,255)" stroke="none">æ</tspan></tspan></tspan></text>
   </g>
  </g>
 </g>
</svg>
